assets/icons/24px/stroke/statement-24px.svg

<svg width="24" height="24" viewBox="0 0 24 24" fill="none" xmlns="http://www.w3.org/2000/svg">
<path fill-rule="evenodd" clip-rule="evenodd" d="M8.93417 2C8.95604 2 8.97799 2 9 2L15.0658 2C15.9523 1.99995 16.7161 1.99991 17.3278 2.08215C17.9833 2.17028 18.6117 2.36902 19.1213 2.87868C19.631 3.38835 19.8297 4.0167 19.9179 4.67221C20.0001 5.28387 20.0001 6.04769 20 6.93417V17.0658C20.0001 17.9523 20.0001 18.7161 19.9179 19.3278C19.8297 19.9833 19.631 20.6117 19.1213 21.1213C18.6117 21.631 17.9833 21.8297 17.3278 21.9179C16.7161 22.0001 15.9523 22.0001 15.0658 22H8.9342C8.0477 22.0001 7.28388 22.0001 6.67221 21.9179C6.0167 21.8297 5.38835 21.631 4.87868 21.1213C4.36902 20.6117 4.17028 19.9833 4.08215 19.3278C3.99991 18.7161 3.99995 17.9523 4 17.0658L4 7C4 6.97799 4 6.95604 4 6.93417C3.99995 6.04769 3.99991 5.28387 4.08215 4.67221C4.17028 4.0167 4.36902 3.38835 4.87868 2.87868C5.38835 2.36902 6.0167 2.17028 6.67221 2.08215C7.28387 1.99991 8.04769 1.99995 8.93417 2ZM6.93871 4.06431C6.50497 4.12263 6.36902 4.21677 6.2929 4.2929C6.21677 4.36902 6.12263 4.50497 6.06431 4.93871C6.00213 5.40121 6 6.02893 6 7V17C6 17.9711 6.00213 18.5988 6.06431 19.0613C6.12263 19.495 6.21677 19.631 6.2929 19.7071C6.36902 19.7832 6.50497 19.8774 6.93871 19.9357C7.40121 19.9979 8.02893 20 9 20H15C15.9711 20 16.5988 19.9979 17.0613 19.9357C17.495 19.8774 17.631 19.7832 17.7071 19.7071C17.7832 19.631 17.8774 19.495 17.9357 19.0613C17.9979 18.5988 18 17.9711 18 17V7C18 6.02893 17.9979 5.40122 17.9357 4.93871C17.8774 4.50497 17.7832 4.36902 17.7071 4.2929C17.631 4.21677 17.495 4.12263 17.0613 4.06431C16.5988 4.00213 15.9711 4 15 4H9C8.02893 4 7.40122 4.00213 6.93871 4.06431Z" fill="white"/>
<path fill-rule="evenodd" clip-rule="evenodd" d="M8.5 7.5C8.5 6.94772 8.94772 6.5 9.5 6.5H14.5C15.0523 6.5 15.5 6.94772 15.5 7.5C15.5 8.05228 15.0523 8.5 14.5 8.5H9.5C8.94772 8.5 8.5 8.05228 8.5 7.5ZM8.5 11.5C8.5 10.9477 8.94772 10.5 9.5 10.5H14.5C15.0523 10.5 15.5 10.9477 15.5 11.5C15.5 12.0523 15.0523 12.5 14.5 12.5H9.5C8.94772 12.5 8.5 12.0523 8.5 11.5ZM8.5 15.5C8.5 14.9477 8.94772 14.5 9.5 14.5H12C12.5523 14.5 13 14.9477 13 15.5C13 16.0523 12.5523 16.5 12 16.5H9.5C8.94772 16.5 8.5 16.0523 8.5 15.5Z" fill="white"/>
</svg>

<svg width="24" height="24" fill="none" xmlns="http://www.w3.org/2000/svg"><path fill-rule="evenodd" clip-rule="evenodd" d="M8.934 2h6.132c.886 0 1.65 0 2.262.082.655.088 1.284.287 1.793.797.51.51.709 1.138.797 1.793C20 5.284 20 6.048 20 6.934v10.132c0 .886 0 1.65-.082 2.262-.088.655-.287 1.284-.797 1.793-.51.51-1.138.709-1.793.797-.612.082-1.376.082-2.262.082H8.934c-.886 0-1.65 0-2.262-.082-.655-.088-1.284-.287-1.793-.797-.51-.51-.709-1.138-.797-1.793C4 18.716 4 17.952 4 17.066V7v-.066c0-.886 0-1.65.082-2.262.088-.655.287-1.284.797-1.793.51-.51 1.138-.709 1.793-.797C7.284 2 8.048 2 8.934 2zM6.94 4.064c-.434.059-.57.153-.646.229-.076.076-.17.212-.229.646C6.002 5.4 6 6.029 6 7v10c0 .971.002 1.599.064 2.061.059.434.153.57.229.646.076.076.212.17.646.229C7.4 19.998 8.029 20 9 20h6c.971 0 1.599-.002 2.061-.064.434-.059.57-.153.646-.229.076-.076.17-.212.229-.646.062-.462.064-1.09.064-2.061V7c0-.971-.002-1.599-.064-2.061-.059-.434-.153-.57-.229-.646-.076-.076-.212-.17-.646-.229C16.6 4.002 15.971 4 15 4H9c-.971 0-1.599.002-2.061.064z" fill="#fff"/><path fill-rule="evenodd" clip-rule="evenodd" d="M8.5 7.5a1 1 0 0 1 1-1h5a1 1 0 1 1 0 2h-5a1 1 0 0 1-1-1zm0 4a1 1 0 0 1 1-1h5a1 1 0 1 1 0 2h-5a1 1 0 0 1-1-1zm0 4a1 1 0 0 1 1-1H12a1 1 0 1 1 0 2H9.5a1 1 0 0 1-1-1z" fill="#fff"/></svg>
